packages/ffe-icons/icons/open/400/sm/dialogs.svg

<svg xmlns="http://www.w3.org/2000/svg" height="20" viewBox="0 -960 960 960" width="20"><path d="M371.96-336h215.757Q603-336 613.5-346.338 624-356.677 624-371.96v-215.757Q624-603 613.662-613.5 603.323-624 588.04-624H372.283Q357-624 346.5-613.662 336-603.323 336-588.04v215.757Q336-357 346.338-346.5 356.677-336 371.96-336ZM216-144q-29.7 0-50.85-21.15Q144-186.3 144-216v-528q0-29.7 21.15-50.85Q186.3-816 216-816h528q29.7 0 50.85 21.15Q816-773.7 816-744v528q0 29.7-21.15 50.85Q773.7-144 744-144H216Zm0-72h528v-528H216v528Zm0-528v528-528Z"/></svg>

<svg xmlns="http://www.w3.org/2000/svg" height="20" viewBox="0 -960 960 960" width="20"><path d="M371.96-336h215.76q15.28 0 25.78-10.34 10.5-10.34 10.5-25.62v-215.76q0-15.28-10.34-25.78-10.34-10.5-25.62-10.5H372.28q-15.28 0-25.78 10.34-10.5 10.34-10.5 25.62v215.76q0 15.28 10.34 25.78 10.34 10.5 25.62 10.5ZM216-144q-29.7 0-50.85-21.15Q144-186.3 144-216v-528q0-29.7 21.15-50.85Q186.3-816 216-816h528q29.7 0 50.85 21.15Q816-773.7 816-744v528q0 29.7-21.15 50.85Q773.7-144 744-144H216Zm0-72h528v-528H216v528Zm0-528v528-528Z"/></svg>
